hi/view-grid-add.svg

<svg viewBox="0 0 20 20" fill="none" xmlns="http://www.w3.org/2000/svg" height="1em" width="1em">
  <path d="M5 3C3.89543 3 3 3.89543 3 5V7C3 8.10457 3.89543 9 5 9H7C8.10457 9 9 8.10457 9 7V5C9 3.89543 8.10457 3 7 3H5Z" fill="#4B5563"/>
  <path d="M5 11C3.89543 11 3 11.8954 3 13V15C3 16.1046 3.89543 17 5 17H7C8.10457 17 9 16.1046 9 15V13C9 11.8954 8.10457 11 7 11H5Z" fill="#4B5563"/>
  <path d="M11 5C11 3.89543 11.8954 3 13 3H15C16.1046 3 17 3.89543 17 5V7C17 8.10457 16.1046 9 15 9H13C11.8954 9 11 8.10457 11 7V5Z" fill="#4B5563"/>
  <path d="M14 11C14.5523 11 15 11.4477 15 12V13H16C16.5523 13 17 13.4477 17 14C17 14.5523 16.5523 15 16 15H15V16C15 16.5523 14.5523 17 14 17C13.4477 17 13 16.5523 13 16V15H12C11.4477 15 11 14.5523 11 14C11 13.4477 11.4477 13 12 13H13V12C13 11.4477 13.4477 11 14 11Z" fill="#4B5563"/>
</svg>

<svg viewBox="0 0 20 20" fill="none" xmlns="http://www.w3.org/2000/svg" height="1em" width="1em">
  <path d="M5 3a2 2 0 0 0-2 2v2a2 2 0 0 0 2 2h2a2 2 0 0 0 2-2V5a2 2 0 0 0-2-2H5Zm0 8a2 2 0 0 0-2 2v2a2 2 0 0 0 2 2h2a2 2 0 0 0 2-2v-2a2 2 0 0 0-2-2H5Zm6-6a2 2 0 0 1 2-2h2a2 2 0 0 1 2 2v2a2 2 0 0 1-2 2h-2a2 2 0 0 1-2-2V5Zm3 6a1 1 0 0 1 1 1v1h1a1 1 0 1 1 0 2h-1v1a1 1 0 1 1-2 0v-1h-1a1 1 0 1 1 0-2h1v-1a1 1 0 0 1 1-1Z" fill="#4B5563"/>
</svg>
